img/logo-white.svg

<svg width="160" height="48" viewBox="0 0 160 48" fill="none" xmlns="http://www.w3.org/2000/svg">
<g clip-path="url(#clip0_1513_2143)">
<path d="M89.6831 46.2857C89.7082 46.8494 90.3667 47.0662 90.8935 47.0662C91.4015 47.0476 92.0287 46.8742 92.0475 46.2609C92.0475 45.5795 91.4015 45.5671 90.8245 45.4927C90.0531 45.4122 89.2755 45.214 89.2755 44.3715C89.2755 43.529 90.0719 43.1511 90.8245 43.1511C91.552 43.1325 92.3799 43.4856 92.4175 44.3033H91.9409C91.8907 43.7706 91.32 43.6033 90.8371 43.6033C90.373 43.6219 89.7897 43.8139 89.7897 44.3653C89.7897 44.9847 90.4043 45.0157 90.9186 45.0777C91.7653 45.1768 92.5492 45.3255 92.5492 46.2547C92.5492 47.1839 91.6775 47.4813 90.9061 47.4936C90.1158 47.5122 89.2253 47.1405 89.2002 46.2795H89.6957L89.6831 46.2857Z" fill="white"/>
<path d="M96.0111 47.4936C94.8195 47.4936 93.8662 46.6697 93.8662 45.3316C93.8662 43.9935 94.832 43.1572 96.0236 43.1572C97.2152 43.1572 98.1748 43.9997 98.1748 45.3316C98.1748 46.6635 97.2968 47.4936 96.0111 47.4936V47.4936ZM96.0111 47.029C96.9455 47.029 97.6668 46.3414 97.6668 45.3254C97.6668 44.3095 96.9581 43.6033 96.0174 43.6033C95.0766 43.6033 94.3742 44.2909 94.3742 45.3254C94.3742 46.3599 95.0829 47.029 96.0111 47.029Z" fill="white"/>
<path d="M102.145 45.6598H100.288V47.4315H99.7803V43.2314H102.308V43.6713H100.288V45.2138H102.145V45.6598V45.6598Z" fill="white"/>
<path d="M103.399 43.6778V43.2256H106.516V43.6778H105.205V47.4319H104.716V43.6778H103.405H103.399Z" fill="white"/>
<path d="M110.417 43.3061L111.533 46.5708H111.546L112.01 44.7743C112.173 44.2415 112.324 43.7459 112.493 43.2256H113.02V43.2937L111.715 47.4566H111.364L110.298 44.3716L109.244 47.4566H108.887L107.563 43.3061V43.2256H108.103L108.592 44.7805L109.075 46.5708H109.081L110.166 43.3061H110.417V43.3061Z" fill="white"/>
<path d="M114.795 46.3908L114.299 47.4316H113.766V47.3696L115.748 43.2129H115.974L117.937 47.3696V47.4316H117.41L116.914 46.3908H114.788H114.795ZM114.964 45.9572H116.751L115.861 43.9996L114.964 45.9572Z" fill="white"/>
<path d="M122.634 47.3572V47.4254H122.101L120.922 45.8829H119.812V47.4254H119.297V43.2129H120.997C121.869 43.2129 122.446 43.8076 122.446 44.5634C122.446 45.2138 122.025 45.666 121.43 45.8147L122.634 47.351V47.3572ZM120.997 45.4678C121.536 45.4678 121.957 45.1085 121.957 44.5634C121.957 44.0182 121.549 43.6589 120.997 43.6589H119.799V45.4616H120.997V45.4678Z" fill="white"/>
<path d="M126.585 43.6651H124.622V45.0403H126.522V45.4802H124.622V46.9669H126.654V47.4315H124.114V43.2314H126.585V43.6713V43.6651Z" fill="white"/>
<path d="M130.818 46.2857C130.85 46.8494 131.508 47.0662 132.029 47.0662C132.543 47.0476 133.17 46.8742 133.183 46.2609C133.183 45.5795 132.543 45.5671 131.966 45.4927C131.194 45.4122 130.417 45.214 130.417 44.3715C130.417 43.529 131.213 43.1511 131.96 43.1511C132.693 43.1325 133.521 43.4856 133.553 44.3033H133.076C133.032 43.7706 132.455 43.6033 131.966 43.6033C131.496 43.6219 130.912 43.8139 130.912 44.3653C130.912 44.9847 131.527 45.0157 132.047 45.0777C132.888 45.1768 133.678 45.3255 133.678 46.2547C133.678 47.1839 132.8 47.4813 132.029 47.4936C131.238 47.5122 130.354 47.1405 130.323 46.2795H130.812L130.818 46.2857Z" fill="white"/>
<path d="M137.742 43.6651H135.779V45.0403H137.673V45.4802H135.779V46.9669H137.805V47.4315H135.265V43.2314H137.736V43.6713L137.742 43.6651Z" fill="white"/>
<path d="M142.797 47.3572V47.4254H142.264L141.085 45.8829H139.975V47.4254H139.46V43.2129H141.16C142.032 43.2129 142.609 43.8076 142.609 44.5634C142.609 45.2138 142.189 45.666 141.593 45.8147L142.797 47.351V47.3572ZM141.16 45.4678C141.699 45.4678 142.12 45.1085 142.12 44.5634C142.12 44.0182 141.712 43.6589 141.16 43.6589H139.962V45.4616H141.16V45.4678Z" fill="white"/>
<path d="M146.228 44.9973L146.955 43.2256H147.501V43.2999L145.732 47.4504H145.519L143.738 43.2999V43.2256H144.277L145.017 44.9973L145.632 46.5708H145.638L146.234 44.9973H146.228Z" fill="white"/>
<path d="M150.574 47.0289V47.4315H148.592V47.0289H149.326V43.6279H148.642V43.2314H150.523V43.6279H149.84V47.0289H150.58H150.574Z" fill="white"/>
<path d="M153.979 43.1758C154.801 43.1758 155.616 43.6156 155.873 44.4891H155.378C155.114 43.9192 154.594 43.6404 153.979 43.6404C153.001 43.6218 152.342 44.3466 152.342 45.3316C152.342 46.3166 152.995 47.0166 153.973 47.0166C154.625 47.0166 155.177 46.6944 155.403 46.0873H155.898C155.654 47.0289 154.832 47.4812 153.979 47.4812C152.794 47.4812 151.828 46.6511 151.828 45.3316C151.828 44.0121 152.788 43.1572 153.979 43.182V43.1758Z" fill="white"/>
<path d="M159.931 43.6651H157.968V45.0403H159.862V45.4802H157.968V46.9669H160V47.4315H157.454V43.2314H159.931V43.6713V43.6651Z" fill="white"/>
<path d="M123.575 35.2468C117.347 35.2468 112.28 30.2414 112.28 24.09C112.28 17.9385 117.347 12.9331 123.575 12.9331C129.803 12.9331 134.87 17.9385 134.87 24.09C134.87 30.2414 129.803 35.2468 123.575 35.2468ZM123.575 14.773C118.376 14.773 114.142 18.9545 114.142 24.09C114.142 29.2254 118.376 33.4069 123.575 33.4069C128.774 33.4069 133.007 29.2254 133.007 24.09C133.007 18.9545 128.774 14.773 123.575 14.773Z" fill="white"/>
<path d="M158.257 17.9879C157.742 17.9879 157.322 17.5728 157.322 17.0649C157.322 15.702 156.199 14.5931 154.82 14.5931C154.305 14.5931 153.885 14.1781 153.885 13.6701C153.885 13.1621 154.299 12.7471 154.82 12.7471C157.228 12.7471 159.185 14.6798 159.185 17.0649C159.185 17.5728 158.765 17.9879 158.25 17.9879H158.257Z" fill="white"/>
<path d="M142.314 34.8009C139.906 34.8009 137.943 32.8681 137.943 30.4831C137.943 29.9751 138.363 29.5601 138.877 29.5601C139.392 29.5601 139.812 29.9751 139.812 30.4831C139.812 31.8459 140.934 32.9548 142.314 32.9548C142.828 32.9548 143.249 33.3699 143.249 33.8778C143.249 34.3858 142.835 34.8009 142.314 34.8009V34.8009Z" fill="white"/>
<path d="M153.816 34.8006H146.272C145.757 34.8006 145.337 34.3917 145.337 33.8776C145.337 33.3634 145.757 32.9545 146.272 32.9545H153.816C156.124 32.9545 157.999 31.1023 157.999 28.8226C157.999 26.5429 156.124 24.6907 153.816 24.6907H143.318C139.988 24.6907 137.272 22.0083 137.272 18.7189C137.272 15.4294 139.981 12.7471 143.318 12.7471H151.088C151.602 12.7471 152.023 13.1621 152.023 13.6701C152.023 14.1781 151.602 14.5931 151.088 14.5931H143.318C141.016 14.5931 139.135 16.4454 139.135 18.7251C139.135 21.0047 141.01 22.857 143.318 22.857H153.816C157.153 22.857 159.862 25.5393 159.862 28.8288C159.862 32.1182 157.147 34.8006 153.816 34.8006V34.8006Z" fill="white"/>
<path d="M90.6493 35.0239C90.135 35.0239 89.7148 34.6088 89.7148 34.1009V13.8996C89.7148 13.3916 90.135 12.9766 90.6493 12.9766C91.1636 12.9766 91.5838 13.3916 91.5838 13.8996V34.107C91.5838 34.615 91.1636 35.0301 90.6493 35.0301V35.0239Z" fill="white"/>
<path d="M106.328 14.8226H95.0643C94.5501 14.8226 94.1299 14.4076 94.1299 13.8996C94.1299 13.3916 94.5501 12.9766 95.0643 12.9766H106.328C106.842 12.9766 107.263 13.3916 107.263 13.8996C107.263 14.4076 106.849 14.8226 106.328 14.8226Z" fill="white"/>
<path d="M104.722 17.5729C104.722 17.065 104.302 16.6499 103.788 16.6499C103.274 16.6499 102.854 17.065 102.854 17.5729V26.1961V34.1007C102.854 34.6086 103.274 35.0237 103.788 35.0237C104.302 35.0237 104.722 34.6086 104.722 34.1007V26.1961V17.5729V17.5729Z" fill="white"/>
<path d="M63.0541 35.0235C62.5398 35.0235 62.1196 34.6085 62.1196 34.1005V17.5851C62.1196 17.0772 62.5398 16.6621 63.0541 16.6621C63.5684 16.6621 63.9885 17.0772 63.9885 17.5851V34.1005C63.9885 34.6085 63.5746 35.0235 63.0541 35.0235Z" fill="white"/>
<path d="M75.616 24.9201H78.664C81.9942 24.9201 84.7098 22.2378 84.7098 18.9484C84.7098 15.6589 81.9942 12.9766 78.664 12.9766H63.0541C62.5398 12.9766 62.1196 13.3916 62.1196 13.8996C62.1196 14.4076 62.5398 14.8226 63.0541 14.8226H78.664C80.9719 14.8226 82.8471 16.6749 82.8471 18.9546C82.8471 21.2342 80.9719 23.0865 78.664 23.0865H66.7857C66.2714 23.0865 65.8512 23.5015 65.8512 24.0095C65.8512 24.5175 66.2714 24.9325 66.7857 24.9325H72.9757L83.1168 34.9433C83.2987 35.123 83.537 35.2159 83.7753 35.2159C84.0136 35.2159 84.252 35.123 84.4338 34.9433C84.7976 34.584 84.7976 34.0017 84.4338 33.6424L75.616 24.9325V24.9201Z" fill="white"/>
<path d="M23.788 0.5C10.6491 0.5 0 11.025 0 24.0031C0 31.1147 3.20477 37.483 8.25964 41.7946V39.5892C8.25964 37.6564 9.84635 36.083 11.8093 36.083C13.7723 36.083 15.359 37.6503 15.359 39.5892V45.9761C17.9806 46.9611 20.8216 47.5062 23.7943 47.5062C26.0082 47.5062 28.3663 47.0664 29.1 46.9115L28.1279 45.2451L25.1678 40.1777L24.8228 39.583L20.3261 31.8953L20.3512 31.8829C21.4111 32.3599 22.5902 32.6325 23.8257 32.6325C25.4374 32.6325 26.9426 32.174 28.222 31.3935C30.624 29.9315 32.2358 27.3173 32.2358 24.3314C32.2358 19.7411 28.4729 16.0304 23.8319 16.0304C19.191 16.0304 15.4218 19.7473 15.4218 24.3314C15.4218 24.3934 15.4343 24.4553 15.4343 24.5173H15.3528V28.5563C15.3528 30.4891 13.7661 32.0625 11.8031 32.0625C9.84007 32.0625 8.25337 30.4953 8.25337 28.5563V24.5173H8.32863C8.32863 24.4553 8.32863 24.3934 8.32863 24.3314C8.32863 15.8755 15.265 9.02405 23.8257 9.02405C32.3863 9.02405 39.3227 15.8755 39.3227 24.3314C39.3227 29.9129 36.2872 34.7821 31.7654 37.4582L35.7667 44.3097C42.8285 40.2335 47.5823 32.6758 47.5823 24.0093C47.5823 11.025 36.9332 0.5 23.788 0.5Z" fill="white"/>
</g>
<defs>
<clipPath id="clip0_1513_2143">
<rect width="160" height="47" fill="white" transform="translate(0 0.5)"/>
</clipPath>
</defs>
</svg>

<svg width="160" height="48" fill="none" xmlns="http://www.w3.org/2000/svg"><g clip-path="url(#clip0_1513_2143)" fill="#fff"><path d="M89.683 46.286c.025.563.684.78 1.21.78.508-.018 1.136-.192 1.154-.805 0-.681-.645-.694-1.222-.768-.772-.08-1.55-.279-1.55-1.122 0-.842.797-1.22 1.55-1.22.727-.019 1.555.335 1.593 1.152h-.477c-.05-.532-.621-.7-1.104-.7-.464.019-1.047.21-1.047.762 0 .62.614.65 1.129.713.846.099 1.63.247 1.63 1.177 0 .929-.872 1.226-1.643 1.239-.79.018-1.68-.353-1.706-1.215h.496l-.013.007zm6.328 1.208c-1.191 0-2.145-.824-2.145-2.162 0-1.339.966-2.175 2.158-2.175 1.191 0 2.15.843 2.15 2.175 0 1.331-.877 2.162-2.163 2.162zm0-.465c.934 0 1.656-.688 1.656-1.704s-.709-1.722-1.65-1.722c-.94 0-1.643.688-1.643 1.722 0 1.035.709 1.704 1.637 1.704zm6.134-1.369h-1.857v1.772h-.508v-4.2h2.528v.44h-2.02v1.542h1.857v.446zm1.254-1.982v-.452h3.117v.452h-1.311v3.754h-.489v-3.754h-1.317zm7.018-.372l1.116 3.265h.013l.464-1.797c.163-.532.314-1.028.483-1.548h.527v.068l-1.305 4.163h-.351l-1.066-3.085-1.054 3.085h-.357l-1.324-4.15v-.081h.54l.489 1.555.483 1.79h.006l1.085-3.265h.251zm4.378 3.084l-.496 1.042h-.533v-.062l1.982-4.157h.226l1.963 4.157v.062h-.527l-.496-1.041h-2.126.007zm.169-.433h1.787l-.89-1.957-.897 1.957zm7.67 1.4v.068h-.533l-1.179-1.542h-1.11v1.542h-.515v-4.212h1.7c.872 0 1.449.595 1.449 1.35 0 .65-.421 1.103-1.016 1.252l1.204 1.536v.006zm-1.637-1.89c.539 0 .96-.358.96-.904 0-.545-.408-.904-.96-.904h-1.198v1.803h1.198v.006zm5.588-1.802h-1.963v1.375h1.9v.44h-1.9v1.487h2.032v.465h-2.54v-4.2h2.471v.44-.007zm4.233 2.621c.032.563.69.78 1.211.78.514-.018 1.141-.192 1.154-.805 0-.681-.64-.694-1.217-.768-.772-.08-1.549-.279-1.549-1.122 0-.842.796-1.22 1.543-1.22.733-.019 1.561.335 1.593 1.152h-.477c-.044-.532-.621-.7-1.11-.7-.47.019-1.054.21-1.054.762 0 .62.615.65 1.135.713.841.099 1.631.247 1.631 1.177 0 .929-.878 1.226-1.649 1.239-.791.018-1.675-.353-1.706-1.215h.489l.006.007zm6.924-2.621h-1.963v1.375h1.894v.44h-1.894v1.487h2.026v.465h-2.54v-4.2h2.471v.44l.006-.007zm5.055 3.692v.068h-.533l-1.179-1.542h-1.11v1.542h-.515v-4.212h1.7c.872 0 1.449.595 1.449 1.35 0 .65-.42 1.103-1.016 1.252l1.204 1.536v.006zm-1.637-1.89c.539 0 .96-.358.96-.904 0-.545-.408-.904-.96-.904h-1.198v1.803h1.198v.006zm5.068-.47l.727-1.771h.546v.074l-1.769 4.15h-.213l-1.781-4.15v-.074h.539l.74 1.771.615 1.574h.006l.596-1.574h-.006zm4.346 2.032v.402h-1.982v-.402h.734v-3.401h-.684v-.397h1.881v.397h-.683v3.4h.74-.006zm3.405-3.853c.822 0 1.637.44 1.894 1.313h-.495c-.264-.57-.784-.849-1.399-.849-.978-.018-1.637.707-1.637 1.692s.653 1.685 1.631 1.685c.652 0 1.204-.323 1.43-.93h.495c-.244.942-1.066 1.394-1.919 1.394-1.185 0-2.151-.83-2.151-2.15 0-1.319.96-2.174 2.151-2.149v-.006zm5.952.489h-1.963v1.375h1.894v.44h-1.894v1.487H160v.465h-2.546v-4.2h2.477v.44-.007zm-36.356-8.418c-6.228 0-11.295-5.006-11.295-11.157s5.067-11.157 11.295-11.157S134.87 17.94 134.87 24.09s-5.067 11.157-11.295 11.157zm0-20.474c-5.199 0-9.433 4.181-9.433 9.317 0 5.135 4.234 9.317 9.433 9.317s9.432-4.182 9.432-9.317c0-5.136-4.233-9.317-9.432-9.317zm34.682 3.215a.931.931 0 01-.935-.923c0-1.363-1.123-2.472-2.502-2.472a.931.931 0 01-.935-.923c0-.508.414-.923.935-.923 2.408 0 4.365 1.933 4.365 4.318 0 .508-.42.923-.935.923h.007zM142.314 34.8c-2.408 0-4.371-1.932-4.371-4.317a.93.93 0 01.934-.923c.515 0 .935.415.935.923 0 1.363 1.122 2.472 2.502 2.472.514 0 .935.415.935.923a.927.927 0 01-.935.923zm11.502 0h-7.544a.927.927 0 01-.935-.922c0-.515.42-.923.935-.923h7.544c2.308 0 4.183-1.853 4.183-4.132 0-2.28-1.875-4.132-4.183-4.132h-10.498c-3.33 0-6.046-2.683-6.046-5.972 0-3.29 2.709-5.972 6.046-5.972h7.77c.514 0 .935.415.935.923a.932.932 0 01-.935.923h-7.77c-2.302 0-4.183 1.852-4.183 4.132 0 2.28 1.875 4.132 4.183 4.132h10.498c3.337 0 6.046 2.682 6.046 5.972 0 3.29-2.715 5.972-6.046 5.972zm-63.166.224a.931.931 0 01-.935-.923V13.9a.93.93 0 01.934-.923c.515 0 .935.415.935.923v20.207c0 .508-.42.923-.935.923v-.006zm15.678-20.201H95.064a.931.931 0 01-.934-.923.93.93 0 01.934-.923h11.264c.514 0 .935.415.935.923a.927.927 0 01-.935.923zm-1.606 2.75a.93.93 0 00-.934-.923.93.93 0 00-.934.923V34.1c0 .508.42.923.934.923a.93.93 0 00.934-.923V17.573zm-41.668 17.45a.931.931 0 01-.934-.923V17.585c0-.508.42-.923.934-.923s.934.415.934.923V34.1a.927.927 0 01-.934.923z"/><path d="M75.616 24.92h3.048c3.33 0 6.046-2.682 6.046-5.972 0-3.29-2.716-5.971-6.046-5.971h-15.61a.931.931 0 00-.934.923c0 .508.42.923.934.923h15.61c2.308 0 4.183 1.852 4.183 4.132 0 2.28-1.875 4.132-4.183 4.132H66.786a.931.931 0 00-.935.922c0 .508.42.924.935.924h6.19l10.14 10.01a.937.937 0 001.317 0 .912.912 0 000-1.3l-8.817-8.71v-.013zM23.788.5C10.649.5 0 11.025 0 24.003c0 7.112 3.205 13.48 8.26 17.792v-2.206c0-1.933 1.586-3.506 3.55-3.506 1.962 0 3.549 1.567 3.549 3.506v6.387a23.93 23.93 0 008.435 1.53c2.214 0 4.572-.44 5.306-.595l-.972-1.666-2.96-5.067-.345-.595-4.497-7.688.025-.012a8.42 8.42 0 007.87-.49c2.403-1.462 4.015-4.076 4.015-7.062 0-4.59-3.763-8.3-8.404-8.3s-8.41 3.716-8.41 8.3c0 .062.012.124.012.186h-.081v4.04c0 1.932-1.587 3.506-3.55 3.506-1.963 0-3.55-1.568-3.55-3.507v-4.039h.076v-.186c0-8.455 6.936-15.307 15.497-15.307 8.56 0 15.497 6.852 15.497 15.307 0 5.582-3.036 10.451-7.558 13.127l4.002 6.852c7.061-4.077 11.815-11.634 11.815-20.3C47.582 11.024 36.933.5 23.788.5z"/></g><defs><clipPath id="clip0_1513_2143"><path fill="#fff" transform="translate(0 .5)" d="M0 0h160v47H0z"/></clipPath></defs></svg>
